molo/core/static/images/svgs/search_spr.svg

<?xml version="1.0" encoding="UTF-8" standalone="no"?>
<svg width="21px" height="21px" viewBox="0 0 21 21" version="1.1" xmlns="http://www.w3.org/2000/svg" xmlns:xlink="http://www.w3.org/1999/xlink">
    <!-- Generator: Sketch 43.1 (39012) - http://www.bohemiancoding.com/sketch -->
    <title>icons/search</title>
    <desc>Created with Sketch.</desc>
    <defs></defs>
    <g id="Basics" stroke="none" stroke-width="1" fill="none" fill-rule="evenodd">
        <g id="basics/icons" transform="translate(-236.000000, -71.000000)" fill="#7300FF">
            <g id="icon" transform="translate(179.000000, 37.000000)">
                <g id="icons/search" transform="translate(55.000000, 32.000000)">
                    <g id="Search" transform="translate(2.000000, 2.000000)">
                        <path d="M18.4863,18.3594 C18.1263,18.7294 17.8053,18.9334 17.5873,18.9334 C17.5863,18.9334 17.5853,18.9334 17.5853,18.9324 C17.3633,18.9314 17.0983,18.7034 16.9163,18.5114 C16.2803,17.8464 15.6663,17.2124 15.0853,16.6124 C14.0443,15.5384 13.1183,14.5814 12.3813,13.7664 C12.8823,13.3984 13.3393,12.9754 13.7393,12.5024 C14.2803,13.0114 15.1113,13.7144 16.0773,14.5304 C17.0103,15.3184 18.0253,16.1744 18.8683,16.9364 C19.0363,17.0894 19.1243,17.2234 19.1273,17.3354 C19.1303,17.4194 19.0913,17.7404 18.4863,18.3594 M3.9843,12.1864 C2.6023,10.8814 1.8243,9.1024 1.8503,7.3044 C1.8733,5.7954 2.4823,4.4314 3.5663,3.4674 C4.6703,2.4854 6.5113,1.8504 8.2583,1.8504 C9.2023,1.8504 10.0273,2.0404 10.5823,2.3834 C12.1933,3.3834 13.2663,4.8364 13.6013,6.4724 C13.9163,8.0064 13.5753,9.5864 12.6413,10.9184 C11.5143,12.5274 9.5583,13.5264 7.5373,13.5264 C6.1623,13.5264 4.9003,13.0504 3.9843,12.1864 M20.1093,15.5654 C19.2523,14.7904 18.2203,13.9194 17.2703,13.1174 C16.2873,12.2874 15.3593,11.5034 14.8763,11.0344 C14.8403,11.0004 14.7953,10.9844 14.7563,10.9574 C15.5123,9.4414 15.7533,7.7564 15.4143,6.1014 C14.9753,3.9614 13.6053,2.0834 11.5563,0.8114 C10.7023,0.2814 9.5613,0.0004 8.2583,0.0004 C6.0503,0.0004 3.7813,0.7984 2.3363,2.0854 C0.8603,3.3994 0.0313,5.2434 0.0013,7.2774 C-0.0337,9.5914 0.9563,11.8724 2.7153,13.5324 C3.9743,14.7214 5.6873,15.3774 7.5373,15.3774 C8.6453,15.3774 9.7343,15.1304 10.7393,14.7024 C11.5403,15.6084 12.5703,16.6754 13.7563,17.9004 C14.3343,18.4974 14.9463,19.1284 15.5783,19.7894 C16.2043,20.4454 16.8763,20.7794 17.5743,20.7834 L17.5873,20.7834 C18.3403,20.7834 19.0673,20.4134 19.8103,19.6524 C20.6193,18.8234 21.0003,18.0474 20.9763,17.2774 C20.9573,16.6444 20.6653,16.0684 20.1093,15.5654" id="Fill-1"></path>
                        <path d="M12.4141,9.0107 L10.5821,8.7507 C10.7471,7.5937 10.6891,6.6487 9.8771,5.7997 C9.1401,5.0317 8.2941,4.7637 7.0621,4.8997 L6.8571,3.0617 C8.6531,2.8567 10.0801,3.3367 11.2131,4.5207 C12.6331,6.0027 12.6011,7.6987 12.4141,9.0107" id="Fill-4"></path>
                    </g>
                </g>
            </g>
        </g>
    </g>
</svg>

<svg width="21" height="21" viewBox="0 0 21 21" xmlns="http://www.w3.org/2000/svg">
    <title>
        icons/search
    </title>
    <g fill="#7300FF" fill-rule="evenodd">
        <path d="M18.486 18.36c-.36.37-.68.573-.899.573h-.002c-.222-.002-.487-.23-.669-.422-.636-.665-1.25-1.299-1.83-1.899-1.042-1.074-1.968-2.03-2.705-2.846a7.903 7.903 0 0 0 1.358-1.264c.541.51 1.372 1.212 2.338 2.028.933.788 1.948 1.644 2.791 2.406.168.153.256.287.26.4.002.083-.037.404-.642 1.023M3.984 12.186c-1.382-1.305-2.16-3.084-2.134-4.882.023-1.509.632-2.873 1.716-3.837C4.67 2.485 6.511 1.85 8.258 1.85c.944 0 1.77.19 2.324.533 1.611 1 2.684 2.453 3.02 4.09.314 1.533-.027 3.113-.96 4.445-1.128 1.61-3.084 2.608-5.105 2.608-1.375 0-2.637-.476-3.553-1.34m16.125 3.38c-.857-.776-1.889-1.647-2.839-2.449-.983-.83-1.91-1.614-2.394-2.083-.036-.034-.08-.05-.12-.077.756-1.516.997-3.2.658-4.856-.439-2.14-1.809-4.018-3.858-5.29-.854-.53-1.995-.81-3.298-.81C6.05 0 3.781.797 2.336 2.084.86 3.4.031 5.243.001 7.277c-.035 2.314.955 4.595 2.714 6.255 1.26 1.19 2.972 1.845 4.822 1.845a8.194 8.194 0 0 0 3.202-.675c.801.906 1.831 1.973 3.017 3.198.578.597 1.19 1.228 1.822 1.89.626.655 1.298.99 1.996.993h.013c.753 0 1.48-.37 2.223-1.13.81-.83 1.19-1.606 1.166-2.376-.019-.633-.31-1.209-.867-1.712"/>
        <path d="M12.414 9.01l-1.832-.26c.165-1.156.107-2.101-.705-2.95-.737-.768-1.583-1.036-2.815-.9l-.205-1.838c1.796-.205 3.223.275 4.356 1.459 1.42 1.482 1.388 3.178 1.201 4.49"/>
    </g>
</svg>
